X:98
T:Wheels of the World, The
R:jig
D:Mary Bergin: Feadoga Stain
Z:id:hn-jig-98
M:6/8
K:G
FDD ADD|BGB BcA|Bcd ecA|ABG FED|~G3 AGA|BGB BcA|Bcd ecA|1 AGF G2A:|2 AGF G2D||
GBd gdB|dBG BcA|Bcd ecA|ABG FED|GBd gdB|dBG BcA|Bcd ecA|AGF G3|
dfa gdB|dBG BcA|Bcd ecA|ABG FED|~G3 AGA|BGB BcA|Bcd ecA|AGF G2A||
<end>
<start>
